X:1
T:Title
%%score [ ( 1 2 ) ( 3 4 ) ]
L:1/8
Q:1/4=76
M:3/4
K:A
V:1 treble nm="Sopran Alt"
V:2 treble 
V:3 bass nm="Tenor Bas"
V:4 bass 
V:1
 A2 A2 e2 | c3 B A2 | G2 AG FE | A2 B2 cd | B4 !fermata!A2 :| e2 dc BA | f4 z2 | c2 d2 e2 | %8
w: Lo be den|Her- ren, den|mäch- ti- * gen- *|Kö- nig der *|Eh- ren,||||
w: mei- ne ge-|lie- be- te|See- le, * das *|ist mein Be- *|geh- ren.|Ko- met * zu *|Hauf,|Psal- ter und|
 e2 fe dc | B4 z2 | E2 F2 G2 | A2 B2 cd | B4 !fermata!A2 |] %13
w: |||||
w: Har- fe, * wacht *|auf!|Las- set den|Lob ge- sang *|hö- ren!|
V:2
 E2 E2 E2 | E3 E F2 | B,2 B,2 B,2 | E2 FG AB | G4 E2 :| A2 G2 E2 | A4 x2 | A2 A2 GF | E2 A2 F2 | %9
 G4 x2 | E2 B,2 B,2 | A,2 E2 E2 | E3 D C2 |] %13
V:3
 C2 C2 B,2 | A,3 B, C^D | E2 E2 G,2 | A,2 D,2 E,2 | E2 D2 !fermata!C2 :| C2 D2 E2 | D4 z2 | %7
 E2 F2 B,2 | B,2 A,2 A,2 | E4 z2 | A,2 G,F, =D2 | C2 B,2 A,2 | (A,2 G,2) E,2 |] %13
V:4
 A,2 A,2 G,2 | A,3 G, F,2 | E,2 B,,2 D,2 | C,2 B,,2 A,,2 | E,4 A,,2 :| A,,2 B,,2 C,2 | D,4 x2 | %7
 A,2 G,F, E,D, | C,2 C,2 D,2 | E,4 x2 | C,2 ^D,2 ^E,2 | F,2 G,2 A,2 | E,4 !fermata!A,,2 |] %13

